src/pos-icons/camera-iris.svg

<svg height="24" viewBox="0 0 24 24" width="24" xmlns="http://www.w3.org/2000/svg"><path d="m13.73 15-3.9 6.76c.7.15 1.42.24 2.17.24 2.4 0 4.6-.85 6.32-2.25l-3.66-6.35m-12.2 1.6c.92 2.92 3.15 5.26 5.99 6.34l3.67-6.34m-3.58-3-3.9-6.75c-1.64 1.75-2.64 4.14-2.64 6.75 0 .68.07 1.35.2 2h7.49m12.11-4h-7.49l.29.5 4.76 8.25c1.64-1.78 2.64-4.15 2.64-6.75 0-.69-.07-1.36-.2-2m-.26-1c-.92-2.93-3.15-5.26-5.99-6.34l-3.67 6.34m-2.48 1.5 4.77-8.26c-.7-.15-1.42-.24-2.17-.24-2.4 0-4.6.84-6.32 2.25l3.66 6.35z"/></svg>

<?xml version="1.0" encoding="UTF-8"?><!DOCTYPE svg PUBLIC "-//W3C//DTD SVG 1.1//EN" "http://www.w3.org/Graphics/SVG/1.1/DTD/svg11.dtd"><svg xmlns="http://www.w3.org/2000/svg" xmlns:xlink="http://www.w3.org/1999/xlink" version="1.1" id="mdi-camera-iris" width="24" height="24" viewBox="0 0 24 24"><path d="M13.73,15L9.83,21.76C10.53,21.91 11.25,22 12,22C14.4,22 16.6,21.15 18.32,19.75L14.66,13.4M2.46,15C3.38,17.92 5.61,20.26 8.45,21.34L12.12,15M8.54,12L4.64,5.25C3,7 2,9.39 2,12C2,12.68 2.07,13.35 2.2,14H9.69M21.8,10H14.31L14.6,10.5L19.36,18.75C21,16.97 22,14.6 22,12C22,11.31 21.93,10.64 21.8,10M21.54,9C20.62,6.07 18.39,3.74 15.55,2.66L11.88,9M9.4,10.5L14.17,2.24C13.47,2.09 12.75,2 12,2C9.6,2 7.4,2.84 5.68,4.25L9.34,10.6L9.4,10.5Z" /></svg>
